X:3648
T:Letterkenny Blacksmith, The
O:england
C:Ed Reavy
R:reel
D:Fisherstreet
M:C|
K:G
G2BG AGFD|GABG EA,~A,2|G2BG A2 (3Bcd|edcA FDEF|
G2BG AGFD|GABG EA,~A,2|G,A,B,D EFGA|BdAc BG~G2:|
|:(3Bcd gd (3Bcd gd|^ceae ceae|Bdgd Bdge|fdcA BG~G2|
(3Bcd gd (3Bcd gd|^ceae ceag|(3efg fa gbag|fdcA BG~G2:|


